build/img/logo-footer.svg

<svg width="125" height="30" viewBox="0 0 125 30" fill="none" xmlns="http://www.w3.org/2000/svg">
<g clip-path="url(#clip0)">
<path d="M56.4525 11.9686C60.9604 11.9686 64.2199 15.1594 64.2199 19.4622C64.2199 19.7535 64.1783 20.283 64.1367 20.5743C64.0951 20.9847 63.7483 21.276 63.36 21.276H51.0153C51.1818 24.0166 53.72 26.5983 56.7577 26.5983C58.5608 26.5983 60.0172 25.9496 61.002 25.367C61.5984 25.036 61.862 24.8374 62.2087 25.2876C62.4723 25.6186 62.6803 25.8966 62.9439 26.2276C63.249 26.5983 63.4155 26.8366 62.7774 27.2867C61.751 28.0679 59.4346 29.1668 56.4803 29.1668C51.2927 29.1668 48.0748 25.2743 48.0748 20.5743C48.0471 15.9405 51.265 11.9686 56.4525 11.9686ZM61.2517 18.9723C61.1268 16.6025 59.0601 14.4709 56.4525 14.4709C53.5813 14.4709 51.3482 16.4303 51.0431 18.9723H61.2517Z" fill="#919698"/>
<path d="M68.7971 0.873905C68.7971 0.46348 69.1855 0.0927734 69.6154 0.0927734H70.947C71.377 0.0927734 71.7654 0.46348 71.7654 0.873905V13.0278C71.7654 13.0278 73.5269 11.9686 76.3565 11.9686C81.5024 11.9686 84.5955 15.7286 84.5955 20.5214C84.5955 25.2346 81.1695 29.1535 76.7864 29.1535C73.5685 29.1535 71.5157 26.9822 71.5157 26.9822L71.2522 28.0811C71.1689 28.4518 70.9054 28.7299 70.517 28.7299H69.6154C69.1855 28.7299 68.7971 28.3592 68.7971 27.9487V0.873905ZM76.4674 26.5851C79.6021 26.5851 81.5717 23.765 81.5717 20.5743C81.5717 17.3041 79.6853 14.7224 75.9542 14.7224C73.5962 14.7224 71.7931 15.7022 71.7931 15.7022V23.8842C71.7931 23.8842 73.3882 26.5851 76.4674 26.5851Z" fill="#919698"/>
<path d="M88.6873 6.85813C88.6873 5.75925 89.5888 4.89868 90.6985 4.89868C91.8497 4.89868 92.7513 5.75925 92.7513 6.85813C92.7513 7.91729 91.8497 8.77786 90.6985 8.77786C89.5888 8.77786 88.6873 7.91729 88.6873 6.85813ZM89.2837 13.1601C89.2837 12.7497 89.672 12.379 90.102 12.379H91.4336C91.8636 12.379 92.2519 12.7497 92.2519 13.1601V27.9752C92.2519 28.3856 91.8636 28.7563 91.4336 28.7563H90.102C89.672 28.7563 89.2837 28.3856 89.2837 27.9752V13.1601Z" fill="#919698"/>
<path d="M98.1884 13.1602C98.1884 12.7498 98.5768 12.3791 99.0068 12.3791H99.8251C100.214 12.3791 100.422 12.5379 100.505 12.8689L100.893 14.1399C100.893 14.1399 102.904 11.9686 106.469 11.9686C108.993 11.9686 110.838 12.9086 111.962 14.6298C112.17 14.4709 114.916 11.9686 118.356 11.9686C123.335 11.9686 125 15.0799 125 19.3298V27.962C125 28.3724 124.611 28.7431 124.182 28.7431H122.808C122.378 28.7431 121.99 28.3724 121.99 27.962V19.3298C121.99 16.2582 120.617 14.7092 118.134 14.7092C115.346 14.7092 113.501 16.4701 112.905 16.9996C113.03 17.7013 113.113 18.4692 113.113 19.3298V27.962C113.113 28.3724 112.725 28.7431 112.295 28.7431H110.921C110.491 28.7431 110.103 28.3724 110.103 27.962V19.3298C110.103 16.2185 108.647 14.7092 106.025 14.7092C102.988 14.7092 101.143 17.0394 101.143 17.0394V27.962C101.143 28.3724 100.754 28.7431 100.324 28.7431H98.9929C98.5629 28.7431 98.1746 28.3724 98.1746 27.962V13.1602H98.1884Z" fill="#919698"/>
<path d="M45.7029 0C45.2036 0 44.8013 0.330988 44.6487 0.781132L44.5933 1.01944L44.0523 3.57467C43.8859 4.422 43.6778 5.32229 43.4698 6.20934L43.3727 6.65948C42.8872 8.76456 42.374 10.8961 41.8192 13.0012C41.2366 15.2519 40.5847 17.3835 39.9189 19.3165C39.5306 20.4418 39.1283 21.4348 38.7261 22.2689C38.5042 22.7323 38.2822 23.1692 38.0326 23.5531C37.7829 23.9371 36.9507 25.6185 35.6885 23.7252C35.4665 23.3942 35.2169 22.997 34.9395 22.4939C33.9408 20.6139 33.0531 18.3235 32.2902 16.3376L31.7215 14.8547C31.139 13.319 30.5425 11.7435 29.8768 10.168C29.8074 10.0091 29.7381 9.8502 29.6687 9.69133C29.2387 8.69837 28.7116 7.53329 28.0597 6.34173C27.6991 5.69299 27.3523 5.16341 27.0056 4.67355C26.6311 4.17045 26.1734 3.60115 25.466 3.08481C25.0776 2.82002 24.7031 2.62143 24.3147 2.51551C23.8709 2.38311 23.3715 2.36987 22.9277 2.46255C22.5116 2.55523 22.0955 2.72734 21.6932 3.00537C21.3187 3.25692 21.0413 3.53495 20.7778 3.81298C20.2368 4.422 19.8623 5.01778 19.571 5.53412C19.571 5.53412 22.9554 5.08398 24.9805 8.38062C25.0082 8.42034 25.0221 8.44681 25.0499 8.48653C25.1053 8.59245 25.1747 8.69837 25.2302 8.80428C25.6324 9.59865 26.104 10.5122 26.6172 11.7302C27.2275 13.1866 27.8101 14.6826 28.4204 16.2714C28.67 16.9201 28.9197 17.5688 29.1694 18.2176C29.5577 19.2105 30.0293 20.3889 30.5287 21.5539C30.917 22.4675 31.458 23.6855 32.1376 24.8903C32.4012 25.3404 32.7479 25.9495 33.1918 26.5452C33.5524 27.0351 34.024 27.6176 34.6898 28.134C35.0504 28.3988 35.411 28.5974 35.7856 28.7298C36.2155 28.8886 36.701 28.9416 37.131 28.8754C37.6719 28.8092 38.1158 28.5974 38.3932 28.4253C38.7399 28.2134 39.0728 27.9486 39.3364 27.6706C39.9189 27.0748 40.2934 26.4658 40.6125 25.9362C40.9176 25.4066 41.2089 24.8373 41.4863 24.2018C41.9301 23.1692 42.3463 22.0835 42.7624 20.7596C43.5114 18.4162 44.0523 16.1257 44.5239 13.9809C44.9539 12.0612 45.3561 9.96936 45.8139 7.40089L45.9109 6.87131C46.0635 5.97102 46.2161 5.09722 46.3548 4.18369L46.757 1.44311L46.8125 1.0724C46.8125 1.05916 46.8125 1.05916 46.8125 1.04592C46.7987 0.489862 46.3132 0 45.7029 0Z" fill="#919698"/>
<path d="M19.5982 5.50765C19.3069 6.02399 19.0434 6.61977 18.7521 7.26851C18.5024 7.83781 18.2805 8.42035 18.0724 8.97641L17.5037 10.6711C17.157 11.7832 16.8102 12.7629 16.4496 13.65C16.0612 14.6297 15.6312 15.5167 15.1874 16.2979C14.8406 16.8936 14.3136 17.7145 13.6755 18.2706C13.1068 18.7472 12.6075 18.9458 12.0249 18.9458C11.4563 18.9325 10.7766 18.6413 10.1108 18.1117C9.58375 17.7013 9.02893 17.132 8.37702 16.3243C7.87769 15.6888 7.36448 14.9607 6.85128 14.1531C6.00519 12.7629 5.15909 11.2139 4.32687 9.51923C2.77338 6.34174 1.76085 3.60116 0.859269 1.28425C0.817658 1.15185 0.720566 1.05917 0.595732 1.00622C0.54025 0.992976 0.484769 0.979736 0.429287 0.979736C0.304454 0.979736 0.193491 1.00622 0.110268 1.08565C0.0409163 1.16509 -0.0284357 1.27101 -0.000694935 1.4034C0.0270459 1.49608 0.0409162 1.57551 0.068657 1.66819C0.706695 4.07778 1.60827 7.18907 2.89822 10.5916C3.43916 11.995 4.18816 13.8618 5.17296 15.7418C5.6723 16.695 6.17163 17.5424 6.69871 18.3235C7.35061 19.3032 8.00252 20.0711 8.72378 20.7331C9.16764 21.1435 9.61149 21.4613 10.0692 21.7261C10.6379 22.0438 11.1788 22.2424 11.7059 22.3218C12.3023 22.4145 12.9404 22.3748 13.5229 22.1894C14.0778 22.0173 14.6187 21.7393 15.1735 21.3289C16.2693 20.4948 17.0183 19.4489 17.5592 18.628C18.1279 17.7542 18.6411 16.801 19.2098 15.5167C19.6398 14.537 20.0698 13.4646 20.4997 12.2333L21.0546 10.724C21.2487 10.2209 21.4568 9.75754 21.651 9.29416C22.6358 6.84484 23.9535 6.73893 25.0076 8.40711C22.9409 4.753 19.5982 5.50765 19.5982 5.50765Z" fill="url(#paint0_linear)"/>
</g>
<defs>
<linearGradient id="paint0_linear" x1="-0.000694935" y1="11.6748" x2="25.0139" y2="11.6748" gradientUnits="userSpaceOnUse">
<stop stop-color="#919698"/>
<stop offset="1" stop-color="#919698"/>
</linearGradient>
<clipPath id="clip0">
<rect width="125" height="29.1667" fill="white"/>
</clipPath>
</defs>
</svg>

<svg width="125" height="30" xmlns="http://www.w3.org/2000/svg">
    <g clip-path="url(#clip0)">
        <path d="M56.453 11.969c4.507 0 7.767 3.19 7.767 7.493 0 .291-.042.821-.083 1.112a.78.78 0 01-.777.702H51.015c.167 2.74 2.705 5.322 5.743 5.322 1.803 0 3.26-.648 4.244-1.231.596-.331.86-.53 1.207-.08.263.332.471.61.735.94.305.371.471.61-.167 1.06-1.026.78-3.342 1.88-6.297 1.88-5.187 0-8.405-3.893-8.405-8.593-.028-4.634 3.19-8.605 8.377-8.605zm4.799 7.003c-.125-2.37-2.192-4.501-4.8-4.501-2.87 0-5.104 1.96-5.409 4.501h10.209zM68.797.874c0-.41.389-.781.818-.781h1.332c.43 0 .818.37.818.78v12.155s1.762-1.06 4.591-1.06c5.146 0 8.24 3.76 8.24 8.553 0 4.714-3.427 8.633-7.81 8.633-3.218 0-5.27-2.172-5.27-2.172l-.264 1.1c-.083.37-.347.648-.735.648h-.902c-.43 0-.818-.37-.818-.781V.874zm7.67 25.711c3.135 0 5.105-2.82 5.105-6.01 0-3.27-1.887-5.853-5.618-5.853-2.358 0-4.16.98-4.16.98v8.182s1.594 2.701 4.673 2.701zM88.687 6.858c0-1.099.902-1.96 2.011-1.96 1.152 0 2.053.861 2.053 1.96 0 1.06-.901 1.92-2.053 1.92-1.11 0-2.01-.86-2.01-1.92zm.597 6.302c0-.41.388-.781.818-.781h1.332c.43 0 .818.37.818.781v14.815c0 .41-.388.781-.818.781h-1.332c-.43 0-.818-.37-.818-.78V13.16zM98.188 13.16c0-.41.389-.78.819-.78h.818c.389 0 .597.158.68.489l.388 1.27s2.011-2.17 5.576-2.17c2.524 0 4.369.94 5.493 2.66.208-.158 2.954-2.66 6.394-2.66 4.979 0 6.644 3.11 6.644 7.36v8.633c0 .41-.389.781-.818.781h-1.374c-.43 0-.818-.37-.818-.781V19.33c0-3.072-1.373-4.62-3.856-4.62-2.788 0-4.633 1.76-5.229 2.29.125.701.208 1.47.208 2.33v8.632c0 .41-.388.781-.818.781h-1.374c-.43 0-.818-.37-.818-.781V19.33c0-3.111-1.456-4.62-4.078-4.62-3.037 0-4.882 2.33-4.882 2.33v10.922c0 .41-.389.781-.819.781h-1.331c-.43 0-.818-.37-.818-.781V13.16h.013zM45.703 0c-.5 0-.902.331-1.054.781l-.056.238-.54 2.556a75.729 75.729 0 01-.583 2.634l-.097.45a211.144 211.144 0 01-1.554 6.342 84.624 84.624 0 01-1.9 6.316 27.626 27.626 0 01-1.193 2.952c-.222.463-.444.9-.693 1.284-.25.384-1.082 2.066-2.345.172a16.312 16.312 0 01-.748-1.231c-1-1.88-1.887-4.17-2.65-6.156l-.569-1.483c-.582-1.536-1.178-3.112-1.844-4.687l-.208-.477a40.263 40.263 0 00-1.61-3.35 17.714 17.714 0 00-1.053-1.667c-.375-.504-.833-1.073-1.54-1.59-.388-.264-.763-.463-1.151-.568a2.897 2.897 0 00-1.387-.053 3.488 3.488 0 00-1.235.542c-.374.252-.652.53-.915.808a9.708 9.708 0 00-1.207 1.721s3.384-.45 5.41 2.847c.027.04.041.066.069.106.055.105.125.211.18.317.402.795.874 1.708 1.387 2.926.61 1.457 1.193 2.953 1.803 4.541l.75 1.947c.388.992.86 2.17 1.359 3.336.388.914.929 2.132 1.609 3.336.263.45.61 1.06 1.054 1.655.36.49.832 1.073 1.498 1.589.36.265.721.463 1.096.596.43.159.915.212 1.345.145a3.17 3.17 0 001.262-.45c.347-.212.68-.476.943-.754.583-.596.957-1.205 1.276-1.735.306-.53.597-1.099.874-1.734a35.23 35.23 0 001.276-3.442c.75-2.344 1.29-4.634 1.762-6.78.43-1.919.832-4.01 1.29-6.58l.097-.529c.152-.9.305-1.774.444-2.687l.402-2.74.056-.372v-.026C46.798.49 46.313 0 45.703 0z"/>
        <path d="M19.598 5.508c-.291.516-.555 1.112-.846 1.76-.25.57-.471 1.152-.68 1.708l-.568 1.695a37.678 37.678 0 01-1.054 2.979c-.389.98-.819 1.867-1.263 2.648-.346.596-.873 1.417-1.511 1.973-.57.476-1.069.675-1.651.675-.569-.014-1.248-.305-1.914-.834-.527-.41-1.082-.98-1.734-1.788a26.765 26.765 0 01-1.526-2.17 58.756 58.756 0 01-2.524-4.635C2.773 6.342 1.76 3.601.859 1.284a.447.447 0 00-.263-.278A.726.726 0 00.429.98c-.125 0-.236.026-.319.106-.07.08-.138.185-.11.317.027.093.04.173.069.265.638 2.41 1.54 5.521 2.83 8.924.54 1.403 1.29 3.27 2.274 5.15.5.953.999 1.8 1.526 2.581.652.98 1.304 1.748 2.025 2.41.444.41.887.728 1.345.993.569.318 1.11.516 1.637.596a4.026 4.026 0 001.817-.133 5.494 5.494 0 001.65-.86c1.096-.834 1.845-1.88 2.386-2.701.569-.874 1.082-1.827 1.65-3.111.43-.98.86-2.052 1.29-3.284l.556-1.509c.194-.503.402-.966.596-1.43.985-2.45 2.302-2.555 3.357-.887-2.067-3.654-5.41-2.9-5.41-2.9z"/>
    </g>
    <defs>
        <linearGradient id="paint0_linear" x1="-.001" y1="11.675" x2="25.014" y2="11.675" gradientUnits="userSpaceOnUse">
            <stop stop-color="#919698"/>
            <stop offset="1" stop-color="#919698"/>
        </linearGradient>
        <clipPath id="clip0">
            <path d="M0 0h125v29.167H0z"/>
        </clipPath>
    </defs>
</svg>
